X:2385
L:1/8
M:4/4
K:C
 BEA |[M:2/2][K:G]SOSOO .!fermata!PMTuCOMB>c | d>g (3gfe d>Be>d | B>GD>B A2 A>G | F>GA>B c>de>f | 
 (3gba (3gfe d2 B>c | dg (3gfe d>Be>d | B>GD>B A2 A>G | F>GA>B c>de>f | g>fg>a g2 :: e>f | 
 g>ba>g f>ag>f | e>f (3gfe f>dB>d | g>ba>g f>ag>f | e>f (3gfe e2 B2 | (3ccc A>c (3BBB G>B | 
 (3AAA F>AE>F D2 | D>EF>G A>Bc>A | (3GBd (3gdB G2 :|

